X:6
T:Johnny O'Leary's
Z:François 25.04.2012 from Soazig
M:6/8
L:1/8
Q:3/8=100
R:jig
K:Edor
%| E6 | E3 E3 |
%
|: E3 EFD | EFD EFD | E3 EFG | A2 G FED |
E3 EFD | EFD EFG | ABA DFG | A2 G FED :|
|: B3 EFA | B2 A Bcd | B3 EFG | A2 G FED |
B3 EFA | B2 A Bcd | ABA DFG | A2 G FED :|
|: g2e fed | edc dcB | B2E EFG | A2G FED |
gfe fed | edc d2B | ABA DFG | A2G FED :|

